X:25
T:Hoboecken dans
C:Tielman Susato
B:Tielman Susato: "Danserye" (1551) no. 25
R:Branle, bransle
Z:Transcribed by Frank Nordberg - http://www.musicaviva.com
F:http://abc.musicaviva.com/tunes/susato-tielman/susato-1551-25/susato-1551-25-4m.abc
M:3/2
L:1/2
K:Ddor
V:1
D|D2A|A2d|cdB|A2A|GAF|E2D|D2A|
V:2
A,,|A,,2F,|F,>E,D,|F,2G,|F,2F,|E,C,D,|G,,2D,|A,,>F,,F,|
V:3
F,,|F,,>D,,D,|C,2B,,|A,,2G,,|C,2D,|B,,A,,>B,,|C,2F,,|F,,>D,,D,|
V:4
D,|D,2D,|F,2G,|A,D,E,|F,2D,|E,F,D,|C,2D,|D,2D,|
%
V:1
A2d|cdB|A2G|FGE|D2D|DDE|F2F|EFD|
V:2
F,2D,|F,2G,|F,F,E,|C,E,C,|A,,2B,,|A,,>B,,C,|D,>C, A,,/B,,/|C,A,,B,,|
V:3
C,2B,,|A,,2G,,|C,>D,B,,|A,,G,,A,,|F,,2G,,|F,,F,,E,,|D,,>E,, F,,/G,,/|A,,>F,,G,,|
V:4
F,2G,|A,D,E,|F,>D,E,|F,E,A,,|D,2G,,|D,D,C,|F,>E,D,|C,D,B,,|
%
V:1
C2G|FDF|E2D|DDE|FDG|FED|C2D|D2^C|D2:|
V:2
C,F,,G,,|A,,B,,A,,|C,2A,,|B,,B,,C,|A,,A,,C,|C,2A,,|A,,2A,,|_B,,A,,2|A,,2:|
V:3
A,,2B,,|A,,G,,F,,|G,,>E,,F,,|G,,>F,,E,,|D,,F,,G,,|A,,>G,,F,,|E,,2F,,|G,,E,,2|D,,2:|
V:4
A,,2G,,|D,G,,D,|C,2D,|G,,G,,C,|D,D,C,|F,C,D,|A,,2D,|G,,A,,2|D,2:|
W:
W:
W:  From Musica Viva - http://www.musicaviva.com
W:  the Internet center for free sheet music downloads.
